src/components/Robot/drone.svg

<svg height="480pt" viewBox="0 -16 480 480" width="480pt" xmlns="http://www.w3.org/2000/svg"><path d="m80 32c-26.507812 0-48 21.492188-48 48s21.492188 48 48 48 48-21.492188 48-48c-.027344-26.5-21.5-47.972656-48-48zm0 80c-17.671875 0-32-14.328125-32-32s14.328125-32 32-32 32 14.328125 32 32-14.328125 32-32 32zm0 0"/><path d="m80 320c-26.507812 0-48 21.492188-48 48s21.492188 48 48 48 48-21.492188 48-48c-.027344-26.5-21.5-47.972656-48-48zm0 80c-17.671875 0-32-14.328125-32-32s14.328125-32 32-32 32 14.328125 32 32-14.328125 32-32 32zm0 0"/><path d="m416 0h-32c-35.328125.0390625-63.960938 28.671875-64 64v32c.011719 5.890625.84375 11.753906 2.472656 17.414062l-16.082031 16.082032c-15.070313-16.246094-36.226563-25.484375-58.390625-25.496094h-16c-22.164062.007812-43.324219 9.246094-58.398438 25.496094l-16.082031-16.082032c1.628907-5.660156 2.464844-11.523437 2.480469-17.414062v-32c-.039062-35.328125-28.671875-63.9609375-64-64h-32c-35.328125.0390625-63.9609375 28.671875-64 64v32c.0390625 35.328125 28.671875 63.960938 64 64h32c11.140625 0 22.085938-2.933594 31.734375-8.503906l24.664063 24.664062c-.253907 2.582032-.398438 5.191406-.398438 7.839844v80c0 2.398438.121094 4.753906.328125 7.105469l-25.089844 25.09375c-9.53125-5.378907-20.292969-8.203125-31.238281-8.199219h-32c-35.328125.039062-63.9609375 28.671875-64 64v32c.0390625 35.328125 28.671875 63.960938 64 64h32c35.328125-.039062 63.960938-28.671875 64-64v-32c-.007812-6.113281-.894531-12.195312-2.632812-18.054688l15.914062-15.914062c9.542969 10.449219 21.691406 18.179688 35.199219 22.402344 2.136719 15.789062 15.617187 27.566406 31.550781 27.566406s29.414062-11.777344 31.554688-27.566406c13.507812-4.222656 25.652343-11.953125 35.199218-22.402344l15.910156 15.914062c-1.757812 5.855469-2.667968 11.9375-2.695312 18.054688v32c.039062 35.328125 28.671875 63.960938 64 64h32c35.328125-.039062 63.960938-28.671875 64-64v-32c-.039062-35.328125-28.671875-63.960938-64-64h-32c-10.933594.003906-21.679688 2.828125-31.199219 8.199219l-25.089843-25.09375c.210937-2.351563.328124-4.722657.328124-7.105469v-80c0-2.648438-.144531-5.257812-.398437-7.839844l24.664063-24.664062c9.636718 5.566406 20.566406 8.496094 31.695312 8.503906h32c35.328125-.039062 63.960938-28.671875 64-64v-32c-.039062-35.328125-28.671875-63.9609375-64-64zm-320 144h-32c-26.5-.027344-47.972656-21.5-48-48v-32c.027344-26.5 21.5-47.972656 48-48h32c26.5.027344 47.972656 21.5 48 48v32c-.027344 26.5-21.5 47.972656-48 48zm48 240c-.027344 26.5-21.5 47.972656-48 48h-32c-26.5-.027344-47.972656-21.5-48-48v-32c.027344-26.5 21.5-47.972656 48-48h32c26.5.027344 47.972656 21.5 48 48zm6.335938-65.648438c-2.835938-4.578124-6.238282-8.78125-10.121094-12.511718l16.144531-16.144532c1.851563 5.371094 4.265625 10.53125 7.199219 15.394532zm6.207031-160.671874-15.902344-15.902344c3.847656-3.773438 7.207031-8.015625 10-12.625l13.191406 13.191406c-2.96875 4.839844-5.410156 9.980469-7.289062 15.335938zm83.457031 194.320312c-8.835938 0-16-7.164062-16-16s7.164062-16 16-16 16 7.164062 16 16-7.164062 16-16 16zm72-88c-.179688 26.917969-17.058594 50.890625-42.335938 60.136719-4.828124-12.15625-16.585937-20.132813-29.664062-20.132813s-24.835938 7.976563-29.664062 20.132813c-25.277344-9.246094-42.15625-33.21875-42.335938-60.136719v-80c.039062-35.328125 28.671875-63.960938 64-64h16c35.328125.039062 63.960938 28.671875 64 64zm72 40h32c26.5.027344 47.972656 21.5 48 48v32c-.027344 26.5-21.5 47.972656-48 48h-32c-26.5-.027344-47.972656-21.5-48-48v-32c.027344-26.5 21.5-47.972656 48-48zm-44.214844 1.839844c-3.882812 3.730468-7.285156 7.933594-10.121094 12.511718l-13.265624-13.261718c2.949218-4.863282 5.375-10.023438 7.242187-15.394532zm-16.328125-148.160156c-1.875-5.355469-4.320312-10.5-7.289062-15.335938l13.191406-13.191406c2.792969 4.609375 6.152344 8.851562 10 12.625zm140.542969-61.679688c-.027344 26.5-21.5 47.972656-48 48h-32c-26.5-.027344-47.972656-21.5-48-48v-32c.027344-26.5 21.5-47.972656 48-48h32c26.5.027344 47.972656 21.5 48 48zm0 0"/><path d="m400 32c-26.507812 0-48 21.492188-48 48s21.492188 48 48 48 48-21.492188 48-48c-.027344-26.5-21.5-47.972656-48-48zm0 80c-17.671875 0-32-14.328125-32-32s14.328125-32 32-32 32 14.328125 32 32-14.328125 32-32 32zm0 0"/><path d="m400 416c26.507812 0 48-21.492188 48-48s-21.492188-48-48-48-48 21.492188-48 48c.027344 26.5 21.5 47.972656 48 48zm0-80c17.671875 0 32 14.328125 32 32s-14.328125 32-32 32-32-14.328125-32-32 14.328125-32 32-32zm0 0"/><path d="m224 136h32v16h-32zm0 0"/><path d="m224 168h32v16h-32zm0 0"/><path d="m224 200h32v16h-32zm0 0"/></svg>

<svg xmlns="http://www.w3.org/2000/svg" width="480" height="448" viewBox="0 0 480 448">
  <g transform="rotate(-180 240 224)">
    <path d="M80 32C53.492188 32 32 53.492188 32 80 32 106.507812 53.492188 128 80 128 106.507812 128 128 106.507812 128 80 127.972656 53.5 106.5 32.027344 80 32zM80 112C62.328125 112 48 97.671875 48 80 48 62.328125 62.328125 48 80 48 97.671875 48 112 62.328125 112 80 112 97.671875 97.671875 112 80 112zM80 320C53.492188 320 32 341.492188 32 368 32 394.507812 53.492188 416 80 416 106.507812 416 128 394.507812 128 368 127.972656 341.5 106.5 320.027344 80 320zM80 400C62.328125 400 48 385.671875 48 368 48 350.328125 62.328125 336 80 336 97.671875 336 112 350.328125 112 368 112 385.671875 97.671875 400 80 400z"/>
    <path d="M416,0 L384,0 C348.671875,0.0390625 320.039062,28.671875 320,64 L320,96 C320.011719,101.890625 320.84375,107.753906 322.472656,113.414062 L306.390625,129.496094 C291.320312,113.25 270.164062,104.011719 248,104 L232,104 C209.835938,104.007812 188.675781,113.246094 173.601562,129.496094 L157.519531,113.414062 C159.148438,107.753906 159.984375,101.890625 160,96 L160,64 C159.960938,28.671875 131.328125,0.0390625 96,0 L64,0 C28.671875,0.0390625 0.0390625,28.671875 0,64 L0,96 C0.0390625,131.328125 28.671875,159.960938 64,160 L96,160 C107.140625,160 118.085938,157.066406 127.734375,151.496094 L152.398438,176.160156 C152.144531,178.742188 152,181.351562 152,184 L152,264 C152,266.398438 152.121094,268.753906 152.328125,271.105469 L127.238281,296.199219 C117.707031,290.820312 106.945312,287.996094 96,288 L64,288 C28.671875,288.039062 0.0390625,316.671875 0,352 L0,384 C0.0390625,419.328125 28.671875,447.960938 64,448 L96,448 C131.328125,447.960938 159.960938,419.328125 160,384 L160,352 C159.992188,345.886719 159.105469,339.804688 157.367188,333.945312 L173.28125,318.03125 C182.824219,328.480469 194.972656,336.210938 208.480469,340.433594 C210.617188,356.222656 224.097656,368 240.03125,368 C255.964844,368 269.445312,356.222656 271.585938,340.433594 C285.09375,336.210938 297.238281,328.480469 306.785156,318.03125 L322.695312,333.945312 C320.9375,339.800781 320.027344,345.882812 320,352 L320,384 C320.039062,419.328125 348.671875,447.960938 384,448 L416,448 C451.328125,447.960938 479.960938,419.328125 480,384 L480,352 C479.960938,316.671875 451.328125,288.039062 416,288 L384,288 C373.066406,288.003906 362.320312,290.828125 352.800781,296.199219 L327.710938,271.105469 C327.921875,268.753906 328.039062,266.382812 328.039062,264 L328.039062,184 C328.039062,181.351562 327.894531,178.742188 327.640625,176.160156 L352.304688,151.496094 C361.941406,157.0625 372.871094,159.992188 384,160 L416,160 C451.328125,159.960938 479.960938,131.328125 480,96 L480,64 C479.960938,28.671875 451.328125,0.0390625 416,0 Z M96,144 L64,144 C37.5,143.972656 16.027344,122.5 16,96 L16,64 C16.027344,37.5 37.5,16.027344 64,16 L96,16 C122.5,16.027344 143.972656,37.5 144,64 L144,96 C143.972656,122.5 122.5,143.972656 96,144 Z M144,384 C143.972656,410.5 122.5,431.972656 96,432 L64,432 C37.5,431.972656 16.027344,410.5 16,384 L16,352 C16.027344,325.5 37.5,304.027344 64,304 L96,304 C122.5,304.027344 143.972656,325.5 144,352 L144,384 Z M150.335938,318.351562 C147.5,313.773438 144.097656,309.570312 140.214844,305.839844 L156.359375,289.695312 C158.210938,295.066406 160.625,300.226562 163.558594,305.089844 L150.335938,318.351562 Z M156.542969,157.679688 L140.640625,141.777344 C144.488281,138.003906 147.847656,133.761719 150.640625,129.152344 L163.832031,142.34375 C160.863281,147.183594 158.421875,152.324219 156.542969,157.679688 Z M240,352 C231.164062,352 224,344.835938 224,336 C224,327.164062 231.164062,320 240,320 C248.835938,320 256,327.164062 256,336 C256,344.835938 248.835938,352 240,352 Z M312,264 C311.820312,290.917969 294.941406,314.890625 269.664062,324.136719 C264.835938,311.980469 253.078125,304.003906 240,304.003906 C226.921875,304.003906 215.164062,311.980469 210.335938,324.136719 C185.058594,314.890625 168.179688,290.917969 168,264 L168,184 C168.039062,148.671875 196.671875,120.039062 232,120 L248,120 C283.328125,120.039062 311.960938,148.671875 312,184 L312,264 Z M384,304 L416,304 C442.5,304.027344 463.972656,325.5 464,352 L464,384 C463.972656,410.5 442.5,431.972656 416,432 L384,432 C357.5,431.972656 336.027344,410.5 336,384 L336,352 C336.027344,325.5 357.5,304.027344 384,304 Z M339.785156,305.839844 C335.902344,309.570312 332.5,313.773438 329.664062,318.351562 L316.398438,305.089844 C319.347656,300.226562 321.773438,295.066406 323.640625,289.695312 L339.785156,305.839844 Z M323.457031,157.679688 C321.582031,152.324219 319.136719,147.179688 316.167969,142.34375 L329.359375,129.152344 C332.152344,133.761719 335.511719,138.003906 339.359375,141.777344 L323.457031,157.679688 Z M464,96 C463.972656,122.5 442.5,143.972656 416,144 L384,144 C357.5,143.972656 336.027344,122.5 336,96 L336,64 C336.027344,37.5 357.5,16.027344 384,16 L416,16 C442.5,16.027344 463.972656,37.5 464,64 L464,96 Z"/>
    <path d="M400 32C373.492188 32 352 53.492188 352 80 352 106.507812 373.492188 128 400 128 426.507812 128 448 106.507812 448 80 447.972656 53.5 426.5 32.027344 400 32zM400 112C382.328125 112 368 97.671875 368 80 368 62.328125 382.328125 48 400 48 417.671875 48 432 62.328125 432 80 432 97.671875 417.671875 112 400 112zM400 416C426.507812 416 448 394.507812 448 368 448 341.492188 426.507812 320 400 320 373.492188 320 352 341.492188 352 368 352.027344 394.5 373.5 415.972656 400 416zM400 336C417.671875 336 432 350.328125 432 368 432 385.671875 417.671875 400 400 400 382.328125 400 368 385.671875 368 368 368 350.328125 382.328125 336 400 336z"/>
    <polygon points="224 136 256 136 256 152 224 152"/>
    <polygon points="224 168 256 168 256 184 224 184"/>
    <polygon points="224 200 256 200 256 216 224 216"/>
  </g>
</svg>
